X:359
M:C|
L:1/8
K:D
d|A<F F>E D<A G/F/E/D/|A<F F>A B2 B>d|A<F F>E D<A G/F/E/D/|
d>B A<F E2 E>c|d2 f>d B>e d/c/B/A/|d>ef>d B2 B>g|
(3fed (3cde (3dcB (3ABc|d>B A<F E2E||

